!!!id: 18xx:183
!!!COM: Elsner, Józef
!!!OTL: Msza F op. 35 - Offertorium
!!!PDT:
!!!SMS-siglum: PL-CZ
!!!SMS-shelfmark: D II-29
!!!NIFC-rismID:
!!!URL-scan: http://repozytorium.nifc.pl/skany/pl-cz-nut--dii-29
!!!ONB-nifc: UWAGA: części Mszy: Kyrie, Gloria, Graduale, Credo, Offertorium, Sanctus, Agnus Dei
!!!ENC: Anna Matuszewska
!!!END: 2020-04-01
**kern	**kern	**kern	**text	**text	**text	**kern	**text	**kern	**text	**kern	**text
*part5	*part5	*part4	*part4	*part4	*part4	*part3	*part3	*part2	*part2	*part1	*part1
*staff6	*staff5	*staff4	*staff4	*staff4	*staff4	*staff3	*staff3	*staff2	*staff2	*staff1	*staff1
*I"ORGAN	*	*I"BASSO	*	*	*	*I"TENORE	*	*I"ALTO	*	*I"CANTO	*
*I'ORG	*	*I'B	*	*	*	*I'T	*	*I'A	*	*I'V	*
*group2	*group2	*group1	*	*	*	*group1	*	*group1	*	*group1	*
*clefF4	*clefG2	*clefF4	*	*	*	*clefC4	*	*clefC3	*	*clefC1	*
*k[f#c#]	*k[f#c#]	*k[f#c#]	*	*	*	*k[f#c#]	*	*k[f#c#]	*	*k[f#c#]	*
*M3/4	*M3/4	*M3/4	*	*	*	*M3/4	*	*M3/4	*	*M3/4	*
=1	=1	=1	=1	=1	=1	=1	=1	=1	=1	=1	=1
!	!LO:TX:B:t=Andante	!	!	!	!	!	!	!	!	!LO:TX:B:t=Andante	!
2.D/	4d/ 4f#	2D\	Przyi-	Kę-	Któ-	2d\	Przyi-	(4d\	Przyi-	(4f#/	Przyi-
.	4e/ 4g	.	.	.	.	.	.	4e\)	.	4g/)	.
.	4f#/ 4a	4D\	-miy	-dy	-rzy	4d\	-miy	4f#\	-miy	4a/	-miy
=2	=2	=2	=2	=2	=2	=2	=2	=2	=2	=2	=2
*	*^	*	*	*	*	*	*	*	*	*	*
2.D/	2g/ 2b	(<2d\	2D\	Bo-	Two-	iuż	2d\	Bo-	2g\	Bo-	2b\	Bo-
.	4f#/ 4a	4ryy	4D\	-że	-ie	są	4d\	-że	4f#\	-że	4a\	-że
=3	=3	=3	=3	=3	=3	=3	=3	=3	=3	=3	=3	=3
2D/	2e/ 2g	2B/)	2D\	tę	słoń-	przy	2B\	tę	2e\	tę	2g\	tę
4C#/	8a/L	4A\ 4e	4C#/	o-	-ce	twym	4A\	o-	4e\	o-	8a\L	o-
.	8g/J	.	.	.	.	.	.	.	.	.	8g\J	.
=4	=4	=4	=4	=4	=4	=4	=4	=4	=4	=4	=4	=4
2D/	8.e/L 8.g	4A\	4D\	-fia-	swie-	tro-	4A\	-fia-	8.e\L	-fia-	8.g/L	-fia-
.	16d/Jk 16f#	.	.	.	.	.	.	.	16d\Jk	.	16f#/Jk	.
.	4d/ 4f#	2ryy	4D\	-rę	-ci	-nie	4A\	-rę	4d\	-rę	4f#/	-rę
4BB/	4d/ 4e 4g#X	.	4r	.	.	.	4r	.	4r	.	4r	.
*	*v	*v	*	*	*	*	*	*	*	*	*	*
=5	=5	=5	=5	=5	=5	=5	=5	=5	=5	=5	=5
2.AA/	2c#/ 2e 2a	2C#/	Któ-	Tam	Ci	2A\	Któ-	2e\	Któ-	2a\	Któ-
.	4e/ 4a 4cc#	4AA/	-rą	gdzie	co	4A\	-rą	4e\	-rą	(4cc#\	-rą
=6	=6	=6	=6	=6	=6	=6	=6	=6	=6	=6	=6
*	*^	*	*	*	*	*	*	*	*	*	*
2.D/	2cc#/	2.f#\	2D\	za	ludz-	ży-	2A\	za	2f#\	za	4cc#\)	.
.	.	.	.	.	.	.	.	.	.	.	4f#\	za
.	4b/	.	4D\	nas	-kie	-ią	4B\	nas	4f#\	nas	8.dd\L	nas
.	.	.	.	.	.	.	.	.	.	.	16b\Jk	.
*	*v	*v	*	*	*	*	*	*	*	*	*	*
=7	=7	=7	=7	=7	=7	=7	=7	=7	=7	=7	=7
2.E\	2c#/ 2e 2a	2E\	ka-	Ser-	do	2c#\	ka-	2e\	ka-	2a\	ka-
.	4B/ 4d 4g#X	4E\	-płan	-ca	tey	4B\	-płan	8.e\L	płan	4g#X\	-płan
.	.	.	.	.	.	.	.	16d\Jk	.	.	.
=8	=8	=8	=8	=8	=8	=8	=8	=8	=8	=8	=8
2AA/	8.B/L 8.d 8.g#X	4AA/	swię-	bi-	chwi-	8.B\L	swię-	8.d\L	swię-	8.g\L	swię-
.	16c#/Jk 16e 16a	.	.	.	.	16A\Jk	.	16c#\Jk	-ci	16a\Jk	.
.	8c#/L 8e 8a	4AA/	-ci	-ią	-li	4A\	-ci	4c#\	.	4a\	-ci
.	(8e/ 8gn	.	.	.	.	.	.	.	.	.	.
4r	8d/ 8f#	4r	.	.	.	4r	.	4r	.	4r	.
.	8c#/J) 8e	.	.	.	.	.	.	.	.	.	.
=9	=9	=9	=9	=9	=9	=9	=9	=9	=9	=9	=9
!!LO:PB:g=original
2.D\	(4d/ 4f#	2D\	wzma-	Niech	Co	2d\	wzma-	(4d\	wzma-	(4f#	wzma-
.	4e/) 4g	.	.	.	.	.	.	4e\)	.	4g/)	.
.	4f#/ 4a	4D\	-cniay	się	po	4d\	-cniay	4f#\	-cniay	4a\	-cniay
=10	=10	=10	=10	=10	=10	=10	=10	=10	=10	=10	=10
*	*^	*	*	*	*	*	*	*	*	*	*
2.D\	2g/ 2b	(>2.d\	2D\	wie-	zna-	na-	2d\	wie-	2g\	wie-	2b\	wie-
.	4f#/ 4a	.	4D\	-cznie	-ią	-szym	8d\L	-cznie	4f#\	-cznie	4a\	-cznie
.	.	.	.	.	.	.	8cn\J	.	.	.	.	.
=11	=11	=11	=11	=11	=11	=11	=11	=11	=11	=11	=11	=11
2D\	2e/ 2g	4B\)	2D\	na-	two-	przyi-	(4B\	na-	2e\	na-	2g\	na-
.	.	4B-X\	.	.	.	.	4B-X\)	.	.	.	.	.
4C#\	8e/L 8a	4A\	4C#/	-szą	-ie	-dą	4A\	-szą	4e\	-szą	8a\L	-szą
.	8g/J	.	.	.	.	.	.	.	.	.	8g\J	.
*	*v	*v	*	*	*	*	*	*	*	*	*	*
=12	=12	=12	=12	=12	=12	=12	=12	=12	=12	=12	=12
4D\	8.e/L 8.g	4D\	wia-	dzie-	zgo-	8.A\L	wia-	8.e\L	wia-	8.g/L	wia-
.	16d/Jk 16f#	.	.	.	.	16d\Jk	.	16d\Jk	.	16f#/Jk	.
8D\L	4.d/ 4.f#	4D\	-rę	-ci	-nie	4d\	-rę	4d\	-rę	4f#/	-rę
8C#\	.	.	.	.	.	.	.	.	.	.	.
8BB\	.	4r	.	.	.	4r	.	4r	.	4r	.
8AA\J	8f#/ 8ccn 8dd	.	.	.	.	.	.	.	.	.	.
=13	=13	=13	=13	=13	=13	=13	=13	=13	=13	=13	=13
*	*^	*	*	*	*	*	*	*	*	*	*
2.GG/	2dd/	2g\ 2b	2G\	wspie-	Niech	Spraw	2d\	wspie-	2b\	wspie-	2dd\	wspie-
.	4ryy	8a\L 8cc#X	4G\	-ray	iak	by	4d\	-ray	8a\L	-ray	8cc#\L	-ray
.	.	8g\J 8b	.	.	.	.	.	.	8g\J	.	8b\J	.
*	*v	*v	*	*	*	*	*	*	*	*	*	*
=14	=14	=14	=14	=14	=14	=14	=14	=14	=14	=14	=14
2.AA/	4.f#/ 4.a	2A\	wszys-	Bra-	Bo-	(4.d\	wszys-	(4.f#\	wszys-	(4.a/	wszys-
.	8e/ 8g	.	.	.	.	8A\)	.	8e\)	.	8g/)	.
.	4d/ 4f#	4A\	-tkie	-cia	-że	4G\	-tkie	4d\	-tkie	4f#/	-tkie
=15	=15	=15	=15	=15	=15	=15	=15	=15	=15	=15	=15
*^	*^	*	*	*	*	*	*	*	*	*	*
2A/	2.AA\	2e/	4d\	2AA/	do-	wzgo-	wto-	2A\	do-	(4d\	do-	2e/	do-
.	.	.	8.c#\L	.	.	.	.	.	.	8c#\L	.	.	.
.	.	.	.	.	.	.	.	.	.	8B\J	.	.	.
.	.	.	16B\Jk	.	.	.	.	.	.	.	.	.	.
8A/L	.	4ryy	4c#\	4AA/	-bre	-dzie	-bie	8A\L	-bre	4c#\)	-bre	4e/	-bre
8G/J	.	.	.	.	.	.	.	8G\J	.	.	.	.	.
*	*	*v	*v	*	*	*	*	*	*	*	*	*	*
=16	=16	=16	=16	=16	=16	=16	=16	=16	=16	=16	=16	=16
8.ryy	2D\	8.G< 8.c#/L 8.e	4D\	chę-	ży-	ży-	8.G/L	chę-	8.c#\L	chę-	8.e/L	chę-
16ryy	.	16F#< 16A< 16d/Jk	.	.	.	.	16F#/Jk	-ci	16d\Jk	.	16d/Jk	.
!	!	!LO:TX:a:t=Problem: cyfry 2 i 3 prawdopodobnie powtórki	!	!	!	!	!	!	!	!	!	!
4ryy	.	4F#< 4A< 4d/	4D\	-ci	-li	-li	4F#/	.	4d\	-ci	4d/	-ci
4ryy	4AA\	4A< 4c#/ 4e	4r	.	.	.	4r	.	4r	.	4r	.
=17||	=17||	=17||	=17||	=17||	=17||	=17||	=17||	=17||	=17||	=17||	=17||	=17||
!	!	!LO:TX:a:t=fine	!	!	!	!	!	!	!	!	!	!
8.ryy	2DD\ 2D	8.G< 8.c#/L 8.e	2.r	.	.	.	2.r	.	2.r	.	2.r	.
16ryy	.	16F#< 16A< 16d/Jk	.	.	.	.	.	.	.	.	.	.
4ryy	.	4F#< 4A< 4d/	.	.	.	.	.	.	.	.	.	.
4r	4ryy	4r	.	.	.	.	.	.	.	.	.	.
*v	*v	*	*	*	*	*	*	*	*	*	*	*
==	==	==	==	==	==	==	==	==	==	==	==
*-	*-	*-	*-	*-	*-	*-	*-	*-	*-	*-	*-
!!!system-decoration: [g1]{g2}
!!!RDF**kern: >= above
!!!RDF**kern: <= below
